X:1
T:Avocet
T:Nico Sarbanes
T:2011
C:Nico Sarbanes
Z:All Rights Reserved
L:1/4
M:4/4
K:Eb
V:1 treble 
%%MIDI program 40
V:1
"Ebmaj7" E2 D E | G4 |"G7" G2 F G | =B4 |"Cm7" z c2 A |"Gm7" G B"C7" =E G |"Fm7" F2 =E F | %7
"Dm7b5" G3"G7" F |"Cm" E C C G |"Cm" =B G2 F |"Cm7" E C C B |"C7" =A3 G |"Fm7" F G A B | %13
"Bb7" _c2 _d2 |"Ebmaj7" B4 |"Edim7" z _d2 c |"Fm7" A F c e |"F7b9" d f2 e |"Bb6" d G B c | %19
"C7" A3 =E |"Fm7" G F =E F |"Bb7" B2 =B3/2 c/ |"Ebmaj7" z4 | z4 |] %24

